!!!OTL: Herzens Schluessel
!!!ARE: Europa, Mitteleuropa, Deutschland
!!!SCT: A0135B
!!!YEM: Copyright 1995, estate of Helmut Schaffrath.
**kern
*ICvox
*Ivox
!! Mixed meters:  4/2; 6/2
*M4/2
*k[b-]
*F:
{2f
=1
2f
2f
2a
2f
=2
1cc
1cc
=3
1a
2r}
{2cc
=4
1cc
2cc
[2b-
=5
2b-]
2a
1g
=6
1f}
{1f
=7
2f
2f
2a
2f
=8
1cc
1cc
=9
1a
2r}
{2cc
=10
1cc
2cc
[2b-
=11
2b-]
2a
1g
=12
1f
2r}
{2cc
=13
2cc
2cc
2cc
2b-
=14
1a
2g}
{2g
=15
*M6/2
1a
2b-
2cc
2a
2b-
=16
*M4/2
1g
2r}
{2cc
=17
2cc
2cc
2cc
2a
=18
*M6/2
1f
2cc
1a}
{2cc
=19
*M4/2
1cc
1cc
=20
2a
2b-
1g
=21
1.f}
==
!!!AGN: Romanze, Ballade, Lied
!! Forster IV. 1556 No. 15.
!!!ONB: ESAC (Essen Associative Code) Database: ALTDEU
!!!AMT: irregular
!!!AIN: vox
!!!EED: Helmut Schaffrath
!!!EEV: 1.0
*-
